dist/svgs/org-lock.svg

<svg xmlns="http://www.w3.org/2000/svg" viewBox="0 0 512 512"><path d="M396 215q26 0 44.5 18.5T459 278v170q0 26-19 45t-45 19H117q-26 0-45-19t-19-45V278q0-26 18.5-44.5T116 215v-75q0-29 11-54.5T157 41t44.5-30T256 0t54.5 11T355 41t30 44.5 11 54.5v75zm-241 0h202v-75q0-21-8-39.5T327.5 68t-32-22-39.5-8-39.5 8-32 22-21.5 32.5-8 39.5v75zm265 64q0-11-7-18.5t-18-7.5H117q-11 0-18.5 7.5T91 279v169q0 11 7.5 18.5T117 474h278q11 0 18-7.5t7-18.5V279zm-164 49q16 0 27 11t11 28q0 16-11 27t-27 11-27-11-11-27q0-17 11-28t27-11z"/></svg>

<?xml version="1.0" encoding="UTF-8" standalone="no"?><svg   xmlns:svg="http://www.w3.org/2000/svg"   xmlns="http://www.w3.org/2000/svg"   version="1.1"   width="512"   height="512"   viewBox="0 0 512 512">  <path     d="M396 215Q422 215 440.5 233.5T459 278V448Q459 474 440 493T395 512H117Q91 512 72 493T53 448V278Q53 252 71.5 233.5T116 215V140Q116 111 127 85.5T157 41T201.5 11T256 0T310.5 11T355 41T385 85.5T396 140V215zM155 215H357V140Q357 119 349 100.5T327.5 68T295.5 46T256 38T216.5 46T184.5 68T163 100.5T155 140V215zM420 279Q420 268 413 260.5T395 253H117Q106 253 98.5 260.5T91 279V448Q91 459 98.5 466.5T117 474H395Q406 474 413 466.5T420 448V279zM256 328Q272 328 283 339T294 367Q294 383 283 394T256 405T229 394T218 367Q218 350 229 339T256 328z"     id="org-lock" /></svg>
